!!!OTL: Swingin' down the Lane
!!!COM: Jones, Isham
!!!LYR: Kahn, Gus
!!!LAR: Frey, Hugo
!! "Swingin' Down the Lane" by Isham Jones, lyrics by Gus Kahn
!! from "Barbershop Memories" compiled and arranged by Hugo Frey
!! copyright 1975 by EMI Music Publ. Ltd.; pp. 12-13; alla breve; in G major
!! NOTE:  The second ending is encoded.
**kern	**kern	**kern	**kern
*Ivox	*Ivox	*Ivox	*Ivox
*M2/2	*M2/2	*M2/2	*M2/2
*G:	*G:	*G:	*G:
8G	2r	2r	2r
8A	.	.	.
8B	.	.	.
8G	.	.	.
=1	=1	=1	=1
2E	2G	2B	2e
2E-	2G	2B	2e-
=2	=2	=2	=2
2D	2G	2B	2d
8C#	2r	2r	2r
8En	.	.	.
8G	.	.	.
8A	.	.	.
=3	=3	=3	=3
[1B	4r	4r	4r
.	2E	2c#	2g
.	4F#	4d	4f#
=4	=4	=4	=4
4B]	4G	4c#	4e
4r	4r	4r	4r
2r	2r	8A	2r
.	.	8B	.
.	.	8e	.
.	.	8B	.
=5	=5	=5	=5
2F#	2c	2A	2d
2Fn	2B	2G#	2d
=6	=6	=6	=6
{2E	[2c	2Gn	[2d
8D}	8c]	8F#	8d]
8r	8r	8A	8r
4r	4r	8c	4r
.	.	8d	.
=7	=7	=7	=7
{2D	[1G	[1e	{2B
2C#	.	.	2A#
=8	=8	=8	=8
4D}	4G]	4e]	4B}
4r	4r	4r	4r
2r	2r	8B	2r
.	.	8c	.
.	.	8d	.
.	.	8d#	.
=9	=9	=9	=9
2E	2G#	2e	2B
2BB	2A	2dn	2fn
=10	=10	=10	=10
[2E	[2G#	2c	[2e
8E]	8G#]	8B	8e]
8r	8r	8c	8r
4r	4r	8d	4r
.	.	8e	.
=11	=11	=11	=11
2C#	2Gn	[1B	2e
2D	2G	.	2d
=12	=12	=12	=12
4E	4G	4B]	4c#
4r	4r	4r	4r
2E-	2G	2B-	2c
=13	=13	=13	=13
2En	2G	2A	2c#
2Fn	2B	2G#	2d
=14	=14	=14	=14
2E	2A	2Gn	2c#
8AA	8A	8F#	8c#
8AA	8A	8G	8c#
8AA	8A	8A	8c#
8AA	8A	8F#	8c#
=15	=15	=15	=15
2AA	[1F#	[1E	[1cn
2AA	.	.	.
=16	=16	=16	=16
4D	4F#]	4E]	4c]
4r	4r	4r	4r
8G	2r	2r	2r
8A	.	.	.
8B	.	.	.
8G	.	.	.
=17	=17	=17	=17
2E	2G	2B	2e
2E-	2G	2B	2e-
=18	=18	=18	=18
2D	2G	2B	2d
8C#	2r	2r	2r
8En	.	.	.
8G	.	.	.
8A	.	.	.
=19	=19	=19	=19
[1B	4r	4r	4r
.	2E	2c#	2g
.	4F#	4d	4f#
=20	=20	=20	=20
4B]	4G	4c#	4e
4r	4r	4r	4r
2r	2r	8A	2r
.	.	8B	.
.	.	8e	.
.	.	8B	.
=21	=21	=21	=21
2F#	2c	2A	2d
2Fn	2B	2G#	2d
=22	=22	=22	=22
[2E	[2c	2Gn	[2d
8D]	8c]	8F#	8d]
8r	8r	8A	8r
4r	4r	8c	4r
.	.	8d	.
=23	=23	=23	=23
{2D	[1G	[1e	{2B
2C#	.	.	2A#
=24	=24	=24	=24
4D}	4G]	4e]	4B}
4r	4r	4r	4r
2r	2r	2r	8B
.	.	.	8c
.	.	.	8d
.	.	.	8e
=25	=25	=25	=25
2BB	2G#	2d	2fn
2E	2G#	2c	2e
=26	=26	=26	=26
2E	2G#	2B	2d
2r	2r	8c	2r
.	.	8d	.
.	.	8e	.
.	.	8c	.
=27	=27	=27	=27
2BB	2F#	2B	2d#
2BB	2B	2A	2d#
=28	=28	=28	=28
2E	2B	2G	2e
2r	8G	8G	8G
.	8A	8A	8A
.	8B	8B	8B
.	8G	8G	8G
=29	=29	=29	=29
2AA	2G	2c	2e
2AA	2G	2c	2e-
=30	=30	=30	=30
2D	2F#	2c	2d
2D	2F#	2c	2en
=31	=31	=31	=31
{1GG	{1D	{1B	[1g
=32	=32	=32	=32
1G}	1B}	1d}	1g]
==	==	==	==
*-	*-	*-	*-
